Origami/24x24/apps/cmyktool.svg

<svg width="24" height="24" version="1" xmlns="http://www.w3.org/2000/svg">
 <path d="m11.499693 1.5000209c-0.550023 0-1.100415 0.2050106-1.5115718 0.6161573l-8.3719729 8.3729068c-0.82231376 0.822293-0.82114731 2.198409 0.0012 3.020703l8.3719729 8.372904c0.8223138 0.822294 2.1996538 0.823461 3.0219678 0.0012l8.371974-8.372905c0.822312-0.822294 0.822313-2.199587 0-3.021881l-8.371995-8.3729278c-0.411158-0.4111467-0.961549-0.6161573-1.511575-0.6161573z" style="opacity:.2"/>
 <path d="m11.499693 1.0000087c-0.550023 0-1.100415 0.2050106-1.5115718 0.6161573l-8.3719729 8.3729056c-0.82231376 0.8222934-0.82114731 2.1984094 0.0012 3.0207034l8.3719729 8.372904c0.8223138 0.822294 2.1996538 0.823461 3.0219678 0.0012l8.371974-8.372905c0.822312-0.822294 0.822313-2.199587 0-3.0218814l-8.371995-8.3729266c-0.411158-0.4111467-0.961549-0.6161573-1.511575-0.6161573z" style="fill:#696853"/>
 <path d="m11.5 3.4995188c-0.18334 0-0.366855 0.06803-0.503906 0.2050781l-2.7910159 2.7910157c-0.2741038 0.2740963-0.2741427 0.733715 0 1.0078124l2.7910159 2.791016c0.274103 0.274096 0.733709 0.274058 1.007812 0l2.791016-2.791016c0.274104-0.2740968 0.274104-0.7337157 0-1.0078124l-2.791016-2.7910157c-0.137051-0.1370485-0.320565-0.2050781-0.503906-0.2050781zm-5 5c-0.1832001 1.021e-4 -0.3668575 0.0680067-0.5039062 0.2050781l-2.7910157 2.7910161c-0.2740968 0.274103-0.2740579 0.733708 0 1.007812l2.7910157 2.791016c0.274097 0.274104 0.7337156 0.274104 1.0078124 0l2.7910157-2.791016c0.1370487-0.137052 0.2050781-0.320565 0.2050781-0.503906 0-0.18334-0.0680315-0.366856-0.2050781-0.503906l-2.7910157-2.7910161c-0.1370481-0.137052-0.3207061-0.2051802-0.5039062-0.2050781zm10 0c-0.1832 1.021e-4 -0.366857 0.068007-0.503906 0.2050781l-2.791016 2.7910161c-0.274096 0.274103-0.274057 0.733708 0 1.007812l2.791016 2.791016c0.274097 0.274104 0.733715 0.274104 1.007812 0l2.791016-2.791016c0.137049-0.137051 0.205078-0.320565 0.205078-0.503906 0-0.18334-0.06803-0.366856-0.205078-0.503906l-2.791016-2.7910161c-0.137048-0.137052-0.320706-0.2051802-0.503906-0.2050781zm-5 5.0000002c-0.183341 0-0.366855 0.06803-0.503906 0.205078l-2.7910159 2.791016c-0.2741049 0.274097-0.2741438 0.733715 0 1.007812l2.7910159 2.791016c0.274104 0.274098 0.733708 0.274059 1.007812 0l2.791016-2.791016c0.274105-0.274097 0.274105-0.733715 0-1.007812l-2.791016-2.791016c-0.137052-0.137048-0.320565-0.205078-0.503906-0.205078z" style="opacity:.2"/>
 <path d="m11.499886 3.0000337c-0.18334 0-0.366804 0.068337-0.503855 0.2053851l-2.7906486 2.7909598c-0.2741038 0.2740963-0.2737148 0.7327997 4.279e-4 1.0068971l2.7906487 2.7909579c0.274103 0.2740964 0.733216 0.2744864 1.007319 4.28e-4l2.790648-2.7909581c0.274104-0.2740969 0.274104-0.7331931 0-1.0072899l-2.790684-2.7909948c-0.137051-0.1370485-0.320515-0.2053851-0.503856-0.2053851z" style="fill:#3fa7e2"/>
 <path d="m11.4999 12.999997c-0.183341 0-0.366806 0.06834-0.503857 0.205385l-2.7906598 2.790971c-0.2741049 0.274097-0.2737159 0.732803 4.279e-4 1.0069l2.7906599 2.790971c0.274104 0.274098 0.733219 0.274487 1.007323 4.28e-4l2.790659-2.790971c0.274105-0.274097 0.274105-0.733196 0-1.007293l-2.790678-2.79099c-0.137052-0.137048-0.320517-0.205385-0.503858-0.205385z" style="fill:#3f3f3f"/>
 <path d="m19.999974 11.499898c0-0.18334-0.06834-0.366804-0.205386-0.503854l-2.79096-2.7906489c-0.274096-0.274104-0.732799-0.273715-1.006897 4.278e-4l-2.79096 2.7906481c-0.274096 0.274103-0.274485 0.733216-4.28e-4 1.00732l2.79096 2.790648c0.274097 0.274104 0.733193 0.274104 1.00729 0l2.790995-2.790684c0.137049-0.137051 0.205386-0.320516 0.205386-0.503857z" style="fill:#f1ca42"/>
 <path d="m9.999997 11.499898c0-0.18334-0.068338-0.366804-0.2053846-0.503854l-2.7909601-2.7906489c-0.2740964-0.274104-0.7327998-0.273715-1.0068972 4.278e-4l-2.7909593 2.7906481c-0.2740968 0.274103-0.2744857 0.733216-4.278e-4 1.00732l2.7909592 2.790648c0.274097 0.274104 0.7331933 0.274104 1.0072901 0l2.7909785-2.790667c0.1370487-0.137052 0.2053846-0.320516 0.2053846-0.503857z" style="fill:#ea72bb"/>
 <path d="m11.5 2.9999996c-0.18334 0-0.366855 0.06803-0.503906 0.2050781l-2.7910159 2.7910157c-0.2006017 0.2005962-0.2512245 0.500019-0.1582031 0.7539062 0.0340856-0.0930262 0.0847011-0.1804062 0.1582031-0.2539062l2.7910159-2.7910157c0.137051-0.1370481 0.320566-0.2050781 0.503906-0.2050781 0.183341 0 0.366855 0.06803 0.503906 0.2050781l2.791016 2.7910157c0.0735 0.0735 0.124121 0.16088 0.158203 0.2539062 0.09302-0.253887 0.0424-0.5533097-0.158203-0.7539062l-2.791016-2.7910157c-0.137051-0.1370485-0.320565-0.2050781-0.503906-0.2050781zm-5 5c-0.1832001 1.021e-4 -0.3668575 0.0680067-0.5039062 0.2050781l-2.7910157 2.7910163c-0.2005966 0.200601-0.251214 0.50002-0.1582031 0.753906 0.034078-0.09303 0.084703-0.180404 0.1582031-0.253906l2.7910157-2.7910163c0.1370487-0.1370714 0.3207061-0.204976 0.5039062-0.2050781s0.3668581 0.0680261 0.5039062 0.2050781l2.7910157 2.7910163c0.0734992 0.073501 0.1242533 0.16087 0.1582031 0.253906 0.0293527-0.080438 0.046875-0.164986 0.046875-0.25 0-0.18334-0.0680315-0.366856-0.2050781-0.503906l-2.7910157-2.7910163c-0.1370481-0.137052-0.3207061-0.2051802-0.5039062-0.2050781zm10 0c-0.1832 1.021e-4 -0.366857 0.068007-0.503906 0.2050781l-2.791016 2.7910163c-0.200596 0.200601-0.251214 0.50002-0.158203 0.753906 0.03408-0.09303 0.0847-0.180404 0.158203-0.253906l2.791016-2.7910163c0.137049-0.1370711 0.320706-0.204976 0.503906-0.2050781s0.366858 0.068026 0.503906 0.2050781l2.791016 2.7910163c0.0735 0.0735 0.124253 0.16087 0.158203 0.253906 0.029353-0.080439 0.046875-0.164986 0.046875-0.25 0-0.18334-0.068032-0.366856-0.205078-0.503906l-2.791016-2.7910163c-0.137048-0.137052-0.320706-0.2051802-0.503906-0.2050781zm-5 5.0000004c-0.183341 0-0.366855 0.06803-0.503906 0.205078l-2.7910159 2.791016c-0.2006025 0.200596-0.2512249 0.500019-0.1582031 0.753906 0.034086-0.09303 0.084701-0.180406 0.1582031-0.253906l2.7910159-2.791016c0.137051-0.137048 0.320565-0.205078 0.503906-0.205078s0.366854 0.06803 0.503906 0.205078l2.791016 2.791016c0.0735 0.0735 0.124121 0.16088 0.158203 0.253906 0.09302-0.253887 0.0424-0.55331-0.158203-0.753906l-2.791016-2.791016c-0.137052-0.137048-0.320565-0.205078-0.503906-0.205078z" style="fill:#ffffff;opacity:.1"/>
 <path d="m11.5 0.99999956c-0.550023 0-1.100562 0.20408774-1.5117188 0.61523444l-8.3730468 8.3730466c-0.4738006 0.4737894-0.6643196 1.1320834-0.5917969 1.7617194 0.0528553-0.463141 0.2432837-0.913214 0.5917969-1.261719l8.3730468-8.373047c0.4111568-0.4111467 0.9616958-0.6152344 1.5117188-0.6152344 0.550026 0 1.100561 0.2040877 1.511719 0.6152344l8.371093 8.373047c0.348513 0.348505 0.540651 0.798334 0.59375 1.261719 0.07219-0.629967-0.119949-1.28793-0.59375-1.7617194l-8.371093-8.3730466c-0.411158-0.4111467-0.961693-0.61523444-1.511719-0.61523444z" style="fill:#ffffff;opacity:.1"/>
</svg>

<svg xmlns="http://www.w3.org/2000/svg" width="24" height="24" version="1">
 <path style="opacity:0.2" d="m 11.499693,1.5000209 c -0.550023,0 -1.100415,0.2050106 -1.5115718,0.6161573 L 1.6161483,10.489085 c -0.82231376,0.822293 -0.82114731,2.198409 0.0012,3.020703 l 8.3719729,8.372904 c 0.8223138,0.822294 2.1996538,0.823461 3.0219678,0.0012 l 8.371974,-8.372905 c 0.822312,-0.822294 0.822313,-2.199587 0,-3.021881 L 13.011268,2.1161782 C 12.60011,1.7050315 12.049719,1.5000209 11.499693,1.5000209 Z"/>
 <path style="fill:#696853" d="m 11.499693,1.0000087 c -0.550023,0 -1.100415,0.2050106 -1.5115718,0.6161573 L 1.6161483,9.9890716 c -0.82231376,0.8222934 -0.82114731,2.1984094 0.0012,3.0207034 l 8.3719729,8.372904 c 0.8223138,0.822294 2.1996538,0.823461 3.0219678,0.0012 l 8.371974,-8.372905 c 0.822312,-0.822294 0.822313,-2.199587 0,-3.0218814 L 13.011268,1.616166 C 12.60011,1.2050193 12.049719,1.0000087 11.499693,1.0000087 Z"/>
 <path style="opacity:0.2" d="m 11.5,3.4995188 c -0.18334,0 -0.366855,0.06803 -0.503906,0.2050781 L 8.2050781,6.4956126 c -0.2741038,0.2740963 -0.2741427,0.733715 0,1.0078124 l 2.7910159,2.791016 c 0.274103,0.274096 0.733709,0.274058 1.007812,0 l 2.791016,-2.791016 c 0.274104,-0.2740968 0.274104,-0.7337157 0,-1.0078124 L 12.003906,3.7045969 C 11.866855,3.5675484 11.683341,3.4995188 11.5,3.4995188 Z m -5,5 C 6.3167999,8.4996209 6.1331425,8.5675255 5.9960938,8.7045969 L 3.2050781,11.495613 c -0.2740968,0.274103 -0.2740579,0.733708 0,1.007812 l 2.7910157,2.791016 c 0.274097,0.274104 0.7337156,0.274104 1.0078124,0 L 9.7949219,12.503425 C 9.9319706,12.366373 10,12.18286 10,11.999519 10,11.816179 9.9319685,11.632663 9.7949219,11.495613 L 7.0039062,8.7045969 C 6.8668581,8.5675449 6.6832001,8.4994167 6.5,8.4995188 Z m 10,0 c -0.1832,1.021e-4 -0.366857,0.068007 -0.503906,0.2050781 l -2.791016,2.7910161 c -0.274096,0.274103 -0.274057,0.733708 0,1.007812 l 2.791016,2.791016 c 0.274097,0.274104 0.733715,0.274104 1.007812,0 l 2.791016,-2.791016 C 19.931971,12.366374 20,12.18286 20,11.999519 20,11.816179 19.93197,11.632663 19.794922,11.495613 L 17.003906,8.7045969 C 16.866858,8.5675449 16.6832,8.4994167 16.5,8.4995188 Z m -5,5.0000002 c -0.183341,0 -0.366855,0.06803 -0.503906,0.205078 l -2.7910159,2.791016 c -0.2741049,0.274097 -0.2741438,0.733715 0,1.007812 l 2.7910159,2.791016 c 0.274104,0.274098 0.733708,0.274059 1.007812,0 l 2.791016,-2.791016 c 0.274105,-0.274097 0.274105,-0.733715 0,-1.007812 L 12.003906,13.704597 C 11.866854,13.567549 11.683341,13.499519 11.5,13.499519 Z"/>
 <path style="fill:#3fa7e2" d="m 11.499886,3.0000337 c -0.18334,0 -0.366804,0.068337 -0.503855,0.2053851 L 8.2053824,5.9963786 C 7.9312786,6.2704749 7.9316676,6.7291783 8.2058103,7.0032757 l 2.7906487,2.7909579 c 0.274103,0.2740964 0.733216,0.2744864 1.007319,4.28e-4 l 2.790648,-2.7909581 c 0.274104,-0.2740969 0.274104,-0.7331931 0,-1.0072899 L 12.003742,3.2054188 C 11.866691,3.0683703 11.683227,3.0000337 11.499886,3.0000337 Z"/>
 <path style="fill:#3f3f3f" d="m 11.4999,12.999997 c -0.183341,0 -0.366806,0.06834 -0.503857,0.205385 l -2.7906598,2.790971 c -0.2741049,0.274097 -0.2737159,0.732803 4.279e-4,1.0069 l 2.7906599,2.790971 c 0.274104,0.274098 0.733219,0.274487 1.007323,4.28e-4 l 2.790659,-2.790971 c 0.274105,-0.274097 0.274105,-0.733196 0,-1.007293 l -2.790678,-2.79099 C 11.866723,13.06835 11.683258,13.000013 11.499917,13.000013 Z"/>
 <path style="fill:#f1ca42" d="m 19.999974,11.499898 c 0,-0.18334 -0.06834,-0.366804 -0.205386,-0.503854 l -2.79096,-2.7906489 c -0.274096,-0.274104 -0.732799,-0.273715 -1.006897,4.278e-4 l -2.79096,2.7906481 c -0.274096,0.274103 -0.274485,0.733216 -4.28e-4,1.00732 l 2.79096,2.790648 c 0.274097,0.274104 0.733193,0.274104 1.00729,0 l 2.790995,-2.790684 c 0.137049,-0.137051 0.205386,-0.320516 0.205386,-0.503857 z"/>
 <path style="fill:#ea72bb" d="m 9.999997,11.499898 c 0,-0.18334 -0.068338,-0.366804 -0.2053846,-0.503854 L 7.0036523,8.2053951 C 6.7295559,7.9312911 6.2708525,7.9316801 5.9967551,8.2058229 L 3.2057958,10.996471 c -0.2740968,0.274103 -0.2744857,0.733216 -4.278e-4,1.00732 l 2.7909592,2.790648 c 0.274097,0.274104 0.7331933,0.274104 1.0072901,0 L 9.7945958,12.003772 C 9.9316445,11.86672 9.9999804,11.683256 9.9999804,11.499915 Z"/>
 <path style="opacity:0.1;fill:#ffffff" d="m 11.5,2.9999996 c -0.18334,0 -0.366855,0.06803 -0.503906,0.2050781 L 8.2050781,5.9960934 C 8.0044764,6.1966896 7.9538536,6.4961124 8.046875,6.7499996 8.0809606,6.6569734 8.1315761,6.5695934 8.2050781,6.4960934 L 10.996094,3.7050777 C 11.133145,3.5680296 11.31666,3.4999996 11.5,3.4999996 c 0.183341,0 0.366855,0.06803 0.503906,0.2050781 l 2.791016,2.7910157 c 0.0735,0.0735 0.124121,0.16088 0.158203,0.2539062 0.09302,-0.253887 0.0424,-0.5533097 -0.158203,-0.7539062 L 12.003906,3.2050777 C 11.866855,3.0680292 11.683341,2.9999996 11.5,2.9999996 Z m -5,5 C 6.3167999,8.0001017 6.1331425,8.0680063 5.9960938,8.2050777 L 3.2050781,10.996094 C 3.0044815,11.196695 2.9538641,11.496114 3.046875,11.75 c 0.034078,-0.09303 0.084703,-0.180404 0.1582031,-0.253906 L 5.9960938,8.7050777 C 6.1331425,8.5680063 6.3167999,8.5001017 6.5,8.4999996 6.6832001,8.4998975 6.8668581,8.5680257 7.0039062,8.7050777 L 9.7949219,11.496094 C 9.8684211,11.569595 9.9191752,11.656964 9.953125,11.75 9.9824777,11.669562 10,11.585014 10,11.5 10,11.31666 9.9319685,11.133144 9.7949219,10.996094 L 7.0039062,8.2050777 C 6.8668581,8.0680257 6.6832001,7.9998975 6.5,7.9999996 Z m 10,0 c -0.1832,1.021e-4 -0.366857,0.068007 -0.503906,0.2050781 l -2.791016,2.7910163 c -0.200596,0.200601 -0.251214,0.50002 -0.158203,0.753906 0.03408,-0.09303 0.0847,-0.180404 0.158203,-0.253906 L 15.996094,8.7050777 C 16.133143,8.5680066 16.3168,8.5001017 16.5,8.4999996 c 0.1832,-1.021e-4 0.366858,0.068026 0.503906,0.2050781 l 2.791016,2.7910163 c 0.0735,0.0735 0.124253,0.16087 0.158203,0.253906 C 19.982478,11.669561 20,11.585014 20,11.5 20,11.31666 19.931968,11.133144 19.794922,10.996094 L 17.003906,8.2050777 C 16.866858,8.0680257 16.6832,7.9998975 16.5,7.9999996 Z M 11.5,13 c -0.183341,0 -0.366855,0.06803 -0.503906,0.205078 L 8.2050781,15.996094 C 8.0044756,16.19669 7.9538532,16.496113 8.046875,16.75 c 0.034086,-0.09303 0.084701,-0.180406 0.1582031,-0.253906 L 10.996094,13.705078 C 11.133145,13.56803 11.316659,13.5 11.5,13.5 c 0.183341,0 0.366854,0.06803 0.503906,0.205078 l 2.791016,2.791016 c 0.0735,0.0735 0.124121,0.16088 0.158203,0.253906 0.09302,-0.253887 0.0424,-0.55331 -0.158203,-0.753906 L 12.003906,13.205078 C 11.866854,13.06803 11.683341,13 11.5,13 Z"/>
 <path style="opacity:0.1;fill:#ffffff" d="m 11.5,0.99999956 c -0.550023,0 -1.100562,0.20408774 -1.5117188,0.61523444 L 1.6152344,9.9882806 C 1.1414338,10.46207 0.9509148,11.120364 1.0234375,11.75 1.0762928,11.286859 1.2667212,10.836786 1.6152344,10.488281 L 9.9882812,2.115234 C 10.399438,1.7040873 10.949977,1.4999996 11.5,1.4999996 c 0.550026,0 1.100561,0.2040877 1.511719,0.6152344 l 8.371093,8.373047 c 0.348513,0.348505 0.540651,0.798334 0.59375,1.261719 0.07219,-0.629967 -0.119949,-1.28793 -0.59375,-1.7617194 L 13.011719,1.615234 C 12.600561,1.2040873 12.050026,0.99999956 11.5,0.99999956 Z"/>
</svg>
